svg/SJJB-OpenStreetMapIcons/place_of_worship/jewish.svg

<?xml version="1.0" encoding="UTF-8" standalone="no"?>
<!-- Created with Inkscape (http://www.inkscape.org/) -->
<svg
   xmlns:dc="http://purl.org/dc/elements/1.1/"
   xmlns:cc="http://creativecommons.org/ns#"
   xmlns:rdf="http://www.w3.org/1999/02/22-rdf-syntax-ns#"
   xmlns:svg="http://www.w3.org/2000/svg"
   xmlns="http://www.w3.org/2000/svg"
   xmlns:sodipodi="http://sodipodi.sourceforge.net/DTD/sodipodi-0.dtd"
   xmlns:inkscape="http://www.inkscape.org/namespaces/inkscape"
   version="1.0"
   width="580"
   height="580"
   id="svg2"
   sodipodi:version="0.32"
   inkscape:version="0.46"
   sodipodi:docname="place_of_worship_jewish.svg"
   sodipodi:docbase="s:\Data\FacilityIcons"
   inkscape:output_extension="org.inkscape.output.svg.inkscape">
  <metadata
     id="metadata2975">
    <rdf:RDF>
      <cc:Work
         rdf:about="">
        <dc:format>image/svg+xml</dc:format>
        <dc:type
           rdf:resource="http://purl.org/dc/dcmitype/StillImage" />
			  <cc:license
           rdf:resource="http://web.resource.org/cc/PublicDomain" />
        <dc:language>en</dc:language>
      </cc:Work>
    </rdf:RDF>
  </metadata>
  <sodipodi:namedview
     inkscape:window-height="1003"
     inkscape:window-width="1400"
     inkscape:pageshadow="2"
     inkscape:pageopacity="0.0"
     guidetolerance="10.0"
     gridtolerance="10.0"
     objecttolerance="10.0"
     borderopacity="1.0"
     bordercolor="#666666"
     pagecolor="#ffffff"
     id="base"
     inkscape:zoom="1.3034483"
     inkscape:cx="314.14947"
     inkscape:cy="268.06428"
     inkscape:window-x="0"
     inkscape:window-y="20"
     inkscape:current-layer="svg2"
     showgrid="false" />
  <defs
     id="defs4">
    <inkscape:perspective
       sodipodi:type="inkscape:persp3d"
       inkscape:vp_x="0 : 290 : 1"
       inkscape:vp_y="0 : 1000 : 0"
       inkscape:vp_z="580 : 290 : 1"
       inkscape:persp3d-origin="290 : 193.33333 : 1"
       id="perspective2441" />
    <inkscape:perspective
       id="perspective2466"
       inkscape:persp3d-origin="372.04724 : 350.78739 : 1"
       inkscape:vp_z="744.09448 : 526.18109 : 1"
       inkscape:vp_y="0 : 1000 : 0"
       inkscape:vp_x="0 : 526.18109 : 1"
       sodipodi:type="inkscape:persp3d" />
    <inkscape:perspective
       id="perspective3333"
       inkscape:persp3d-origin="372.04724 : 350.78739 : 1"
       inkscape:vp_z="744.09448 : 526.18109 : 1"
       inkscape:vp_y="0 : 1000 : 0"
       inkscape:vp_x="0 : 526.18109 : 1"
       sodipodi:type="inkscape:persp3d" />
    <inkscape:perspective
       id="perspective3401"
       inkscape:persp3d-origin="372.04724 : 350.78739 : 1"
       inkscape:vp_z="744.09448 : 526.18109 : 1"
       inkscape:vp_y="0 : 1000 : 0"
       inkscape:vp_x="0 : 526.18109 : 1"
       sodipodi:type="inkscape:persp3d" />
    <inkscape:perspective
       id="perspective3464"
       inkscape:persp3d-origin="372.04724 : 350.78739 : 1"
       inkscape:vp_z="744.09448 : 526.18109 : 1"
       inkscape:vp_y="0 : 1000 : 0"
       inkscape:vp_x="0 : 526.18109 : 1"
       sodipodi:type="inkscape:persp3d" />
    <inkscape:perspective
       id="perspective3581"
       inkscape:persp3d-origin="225 : 150 : 1"
       inkscape:vp_z="450 : 225 : 1"
       inkscape:vp_y="0 : 1000 : 0"
       inkscape:vp_x="0 : 225 : 1"
       sodipodi:type="inkscape:persp3d" />
  </defs>
  <g
     id="g1327">
    <path
       d="M 66.275,1.768 C 24.94,1.768 1.704,23.139 1.704,66.804 L 1.704,516.927 C 1.704,557.771 22.599,579.156 63.896,579.156 L 515.92,579.156 C 557.227,579.156 578.149,558.841 578.149,516.927 L 578.149,66.804 C 578.149,24.203 557.227,1.768 514.628,1.768 C 514.624,1.768 66.133,1.625 66.275,1.768 z "
       style="fill:#111;stroke:#eee;stroke-width:3.40799999"
       id="path1329" />
  </g>
  <rect
     style="opacity:0.25;fill:#ffffff;fill-opacity:1;stroke:#ffffff;stroke-width:20.13593864;stroke-linecap:round;stroke-linejoin:round;stroke-miterlimit:4;stroke-dasharray:none;stroke-dashoffset:0;stroke-opacity:1"
     id="rect3585"
     width="168.92059"
     height="168.92059"
     x="207.05904"
     y="373.00064"
     ry="0" />
  <rect
     ry="0"
     y="373.00064"
     x="207.05904"
     height="168.92059"
     width="168.92059"
     id="rect3587"
     style="fill:none;fill-opacity:1;stroke:#ffffff;stroke-width:20.13593864;stroke-linecap:round;stroke-linejoin:round;stroke-miterlimit:4;stroke-dasharray:none;stroke-dashoffset:0;stroke-opacity:1" />
  <path
     sodipodi:nodetypes="cccssssscccscccscccscccsccssssccscccccccccccccssccccsccccccccccsccccccsccsssc"
     id="path3648"
     d="M 267.25388,312.96961 L 243.50018,271.75598 L 196.76546,271.73457 C 167.64023,271.72125 149.43529,270.74975 148.45046,269.15626 C 147.5813,267.74993 157.20372,248.63359 169.83363,226.67547 C 185.49472,199.44739 192.26459,185.35198 191.12264,182.35014 C 190.20169,179.92931 179.95029,161.53267 168.3417,141.46876 C 156.73314,121.40482 147.23522,103.68331 147.23522,102.08764 C 147.23522,99.98685 160.5147,99.18547 195.3677,99.18301 L 243.50018,99.17964 L 267.18791,57.926604 C 280.21616,35.237436 291.67258,16.67357 292.64663,16.67357 C 295.31805,16.67357 301.98823,27.018346 323.6819,64.806047 L 343.41943,99.18639 L 391.60004,99.18639 C 428.53593,99.18639 439.75512,99.91582 439.67129,102.31188 C 439.61112,104.03089 429.1092,123.40535 416.33366,145.36624 L 393.10543,185.2951 L 416.44302,225.72565 C 429.27872,247.96244 439.78065,267.40651 439.78065,268.93469 C 439.78065,270.87632 425.26861,271.71321 391.60004,271.71321 L 343.41943,271.71321 L 323.6819,306.09354 C 302.0947,343.6958 295.30915,354.23722 292.7126,354.20467 C 291.77483,354.19289 280.3184,335.6371 267.25388,312.96961 z M 302.0758,288.28645 C 306.30236,280.89917 309.76047,274.14813 309.76047,273.28411 C 309.76047,272.4201 302.44684,271.71321 293.50795,271.71321 C 284.56905,271.71321 277.25543,272.4201 277.25543,273.28411 C 277.25543,275.31743 292.34571,301.71786 293.50795,301.71786 C 293.99369,301.71786 297.84923,295.67372 302.0758,288.28645 z M 219.21941,229.23627 C 214.69606,221.00129 210.43254,214.2636 209.74493,214.2636 C 209.05732,214.2636 204.79381,221.00129 200.27046,229.23627 L 192.04618,244.20892 L 209.74493,244.20892 L 227.44367,244.20892 L 219.21941,229.23627 z M 336.8524,227.3313 C 342.2478,218.0486 349.8393,204.72596 353.72243,197.72543 L 360.78262,184.99717 L 344.58501,156.46902 L 328.38742,127.94086 L 293.61926,127.94086 L 258.85111,127.94086 L 243.04939,155.15188 C 234.35843,170.11793 227.24765,183.5484 227.24765,184.99733 C 227.24765,187.5882 253.17193,234.97716 257.92974,241.08344 C 259.66134,243.30579 269.99853,244.20892 293.7038,244.20892 L 327.04261,244.20892 L 336.8524,227.3313 z M 386.74541,229.23627 C 382.22206,221.00129 377.95855,214.2636 377.27094,214.2636 C 376.58333,214.2636 372.31981,221.00129 367.79646,229.23627 L 359.57222,244.20892 L 377.27094,244.20892 L 394.96969,244.20892 L 386.74541,229.23627 z M 219.05473,141.65139 L 227.11433,126.69066 L 209.58026,126.69066 L 192.04618,126.69066 L 200.27046,141.66334 C 204.79381,149.8983 209.05732,156.63061 209.74493,156.62403 C 210.43254,156.61746 214.62194,149.87977 219.05473,141.65139 z M 386.58073,141.65139 L 394.64034,126.69066 L 377.10627,126.69066 L 359.57222,126.69066 L 367.79646,141.66334 C 372.31981,149.8983 376.58333,156.63061 377.27094,156.62403 C 377.95855,156.61746 382.14794,149.87977 386.58073,141.65139 z M 309.76047,97.61547 C 309.76047,95.582157 294.67018,69.181728 293.50795,69.181728 C 292.34571,69.181728 277.25543,95.582157 277.25543,97.61547 C 277.25543,98.47948 284.56905,99.18639 293.50795,99.18639 C 302.44684,99.18639 309.76047,98.47948 309.76047,97.61547 z"
     style="fill:#ffffff;fill-opacity:1" />
</svg>

<svg xmlns="http://www.w3.org/2000/svg" viewBox="0 0 580 580"><path d="m66.28 1.768c-41.34 0-64.57 21.371-64.57 65.04v450.12c0 40.844 20.895 62.23 62.19 62.23h452.02c41.31 0 62.23-20.315 62.23-62.23v-450.12c0-42.601-20.922-65.04-63.52-65.04-.004 0-448.5-.143-448.35 0z" fill="#111" stroke="#eee" stroke-width="3.408"/><g stroke="#fff" stroke-linejoin="round" stroke-linecap="round" stroke-width="20.14"><path opacity=".25" fill="#fff" d="m207.06 373h168.92v168.92h-168.92z"/><path fill="none" d="m207.06 373h168.92v168.92h-168.92z"/></g><path d="m267.25 312.97l-23.754-41.21-46.735-.021c-29.13-.013-47.33-.985-48.31-2.578-.869-1.406 8.753-20.523 21.383-42.481 15.661-27.23 22.431-41.32 21.289-44.33-.921-2.421-11.172-20.817-22.781-40.881-11.609-20.06-21.11-37.785-21.11-39.38 0-2.101 13.279-2.902 48.13-2.905l48.13-.003 23.688-41.25c13.03-22.689 24.485-41.25 25.459-41.25 2.671 0 9.342 10.345 31.04 48.13l19.738 34.38h48.18c36.936 0 48.16.729 48.07 3.125-.06 1.719-10.562 21.09-23.338 43.05l-23.23 39.929 23.338 40.43c12.836 22.24 23.338 41.681 23.338 43.21 0 1.942-14.512 2.779-48.18 2.779h-48.18l-19.738 34.38c-21.587 37.602-28.373 48.14-30.969 48.11-.938-.012-12.394-18.568-25.459-41.24m34.822-24.683c4.227-7.387 7.685-14.14 7.685-15 0-.864-7.314-1.571-16.253-1.571-8.939 0-16.253.707-16.253 1.571 0 2.033 15.09 28.434 16.253 28.434.486 0 4.341-6.04 8.568-13.431m-82.86-59.05c-4.523-8.235-8.787-14.973-9.474-14.973-.688 0-4.951 6.738-9.474 14.973l-8.224 14.973h17.699 17.699l-8.224-14.973m117.63-1.905c5.395-9.283 12.987-22.605 16.87-29.606l7.06-12.728-16.198-28.528-16.198-28.528h-34.768-34.768l-15.802 27.21c-8.691 14.966-15.802 28.397-15.802 29.845 0 2.591 25.924 49.98 30.682 56.09 1.732 2.222 12.07 3.125 35.774 3.125h33.34l9.81-16.878m49.893 1.905c-4.523-8.235-8.787-14.973-9.474-14.973-.688 0-4.951 6.738-9.474 14.973l-8.224 14.973h17.699 17.699l-8.224-14.973m-167.69-87.58l8.06-14.961h-17.534-17.534l8.224 14.973c4.523 8.235 8.787 14.967 9.474 14.961.688-.007 4.877-6.744 9.31-14.973m167.53 0l8.06-14.961h-17.534-17.534l8.224 14.973c4.523 8.235 8.787 14.967 9.474 14.961.688-.007 4.877-6.744 9.31-14.973m-76.82-44.04c0-2.033-15.09-28.434-16.253-28.434-1.162 0-16.253 26.4-16.253 28.434 0 .864 7.314 1.571 16.253 1.571 8.939 0 16.253-.707 16.253-1.571" fill="#fff"/></svg>
